X:22
T:An Dro Pharao
M:4/4
L:1/8
K:Ador
||A2 e2 e2 ef |d2 de c4  |BcdB c2 A2|AGAB c2 B2|
|A2 e2 e2 ef |d2 de c4  |BcdB c2 A2|cABG A4   :||
|BcdB  c2 A2 |AGAB c2 B2|BcdB c2 A2|cABG A4   |
|BcdB  c2 A2 |AGAB c2 B2|BcdB c2 A2|cABG A4   ||
